li/brand-odnoklassniki.svg

<svg role="img" focusable="false" aria-hidden="true" xmlns="http://www.w3.org/2000/svg" viewBox="0 0 14 14" height="1em" width="1em">
  <path d="M 8.2624472,9.720363 C 8.8999741,9.575357 9.5089991,9.323347 10.062522,8.975332 10.479539,8.696321 10.591544,8.132297 10.312533,7.71528 10.044521,7.314263 9.5104991,7.193258 9.0949821,7.438768 c -1.2750533,0.797534 -2.8951208,0.797534 -4.170174,0 C 4.5012905,7.171757 3.9422672,7.298762 3.674756,7.72128 c 0,10e-4 0,0.002 -10e-4,0.0025 -0.2670111,0.423518 -0.1400058,0.983041 0.2835118,1.250052 l 10e-4,10e-4 c 0.552523,0.347515 1.1610483,0.600025 1.7980749,0.744031 l -1.7325722,1.732572 c -0.3535147,0.347515 -0.360015,0.915039 -0.014001,1.268553 l 0.015001,0.015 C 4.1967778,12.911996 4.4297875,13 4.6617972,13 4.8943069,13 5.1268165,12.912 5.2993237,12.734989 l 1.7105713,-1.702071 1.7020711,1.703071 c 0.360015,0.347514 0.935039,0.338014 1.283053,-0.0225 0.3390139,-0.351515 0.3390139,-0.909038 0,-1.260052 L 8.2624472,9.720363 Z M 7.009895,7.194258 C 8.7199661,7.192258 10.105024,5.8072 10.107524,4.097629 10.107524,2.390058 8.7174661,1 7.009895,1 5.3023239,1 3.9122659,2.390058 3.9122659,4.098629 3.9147659,5.8087 5.3003238,7.193758 7.009895,7.194758 Z m 0,-4.378682 c 0.7080295,10e-4 1.2815534,0.575024 1.2820534,1.282553 0,0.70803 -0.5740239,1.281553 -1.2820534,1.282554 C 6.3023655,5.379683 5.7288416,4.806659 5.7273416,4.098629 5.7283416,3.3901 6.3023655,2.816576 7.009895,2.815076 Z"/>
</svg>

<svg aria-hidden="true" xmlns="http://www.w3.org/2000/svg" viewBox="0 0 14 14" height="1em" width="1em">
  <path d="M8.262 9.72a5.8 5.8 0 0 0 1.8-.745.908.908 0 0 0-.967-1.536 3.933 3.933 0 0 1-4.17 0 .907.907 0 0 0-1.25.282l-.001.003a.906.906 0 0 0 .283 1.25h.001a5.77 5.77 0 0 0 1.798.745L4.024 11.45a.898.898 0 0 0-.014 1.269l.015.015a.886.886 0 0 0 .637.265.887.887 0 0 0 .637-.265l1.71-1.702 1.703 1.703a.908.908 0 0 0 1.283-1.283L8.262 9.72ZM7.01 7.194a3.1 3.1 0 0 0 3.098-3.096A3.102 3.102 0 0 0 7.01 1a3.102 3.102 0 0 0-3.098 3.099A3.1 3.1 0 0 0 7.01 7.195Zm0-4.378a1.284 1.284 0 0 1 0 2.565 1.284 1.284 0 0 1-1.283-1.282A1.285 1.285 0 0 1 7.01 2.815Z"/>
</svg>
